src/assets/juror-active.svg

<svg width="22" height="15" viewBox="0 0 22 15" fill="none" xmlns="http://www.w3.org/2000/svg">
<path fill-rule="evenodd" clip-rule="evenodd" d="M5.09124 11.8935C5.06221 8.71551 6.54144 6.95242 9.52893 6.60425C9.69998 7.01833 10.1559 8.14073 10.8967 9.97145L12.2721 6.60425C15.2072 6.90796 16.6748 8.70771 16.6748 12.0035C13.704 11.9859 9.94186 11.9859 5.38854 12.0035L5.09124 11.8935Z" fill="white"/>
<path d="M10.8967 5.82083C12.2279 5.82083 13.3071 4.74165 13.3071 3.41042C13.3071 2.07918 12.2279 1 10.8967 1C9.56545 1 8.48627 2.07918 8.48627 3.41042C8.48627 4.74165 9.56545 5.82083 10.8967 5.82083Z" fill="white"/>
<path opacity="0.668271" fill-rule="evenodd" clip-rule="evenodd" d="M5.36185 13.093C5.64163 13.4152 5.83679 13.7889 5.93072 14.1781C5.98225 14.3935 5.87555 14.6094 5.68532 14.7054L5.68605 14.7068C4.55059 15.2818 3.07884 14.9122 2.24502 13.9521C1.96524 13.6299 1.77008 13.2563 1.67615 12.867C1.62462 12.6517 1.73132 12.4357 1.92155 12.3397C3.06245 11.7497 4.54189 12.1488 5.36185 13.093ZM10.8569 9.18847C10.8576 9.91856 10.8586 10.8169 10.8569 9.18847V9.18847ZM5.22575 0.274079C5.8407 1.37577 5.54574 2.83219 4.65007 3.70344C4.34266 4.00247 3.98118 4.219 3.60043 4.3344C3.37261 4.40341 3.13329 4.29122 3.0362 4.08063C2.84776 3.74303 2.73697 3.35234 2.71536 2.94188C2.64894 1.67877 3.4429 0.389514 4.66149 0.0203398C4.88934 -0.0487011 5.1287 0.0634865 5.22575 0.274079ZM4.58704 1.44441C4.5805 1.3214 4.5619 1.20214 4.53201 1.08868C3.84285 1.52064 3.48025 2.44063 3.68621 3.2225C4.27302 2.85472 4.62353 2.13021 4.58704 1.44441ZM1.81077 3.58664C1.61123 3.47585 1.35484 3.52265 1.20918 3.70711C0.419469 4.70774 0.508509 6.21295 1.28963 7.20528C1.54545 7.53028 1.86351 7.78664 2.21452 7.95338C2.41407 8.06418 2.67045 8.01737 2.81612 7.83291C3.86846 6.49959 3.34612 4.31595 1.81077 3.58664ZM1.97011 4.91849C2.40343 5.4586 2.53568 6.24551 2.26588 6.88047C1.63584 6.3597 1.39915 5.40465 1.71572 4.65956C1.80719 4.73519 1.89263 4.82192 1.97011 4.91849ZM0.628665 7.96942C0.405708 7.9619 0.201756 8.1128 0.151014 8.33765C-0.130255 9.58366 0.603611 10.9145 1.73889 11.4779C2.11461 11.6643 2.51922 11.7598 2.91566 11.7575C3.13861 11.765 3.34257 11.6141 3.39331 11.3893C3.76859 9.72685 2.34986 7.95947 0.628665 7.96942ZM1.38818 9.09952C2.00507 9.40874 2.45773 10.0649 2.4931 10.7562C1.71117 10.5463 1.09334 9.78331 1.05173 8.97073C1.16489 9.00112 1.27777 9.04419 1.38818 9.09952ZM3.11804 12.9771C2.99372 12.9764 2.87202 12.9885 2.75517 13.0125C3.15157 13.7286 4.05459 14.1512 4.8517 13.9869C4.51386 13.3766 3.80886 12.9809 3.11804 12.9771Z" fill="#FFDACB"/>
<path opacity="0.668271" fill-rule="evenodd" clip-rule="evenodd" d="M16.3539 13.093C16.0741 13.4152 15.879 13.7889 15.785 14.1781C15.7335 14.3935 15.8402 14.6094 16.0304 14.7054L16.0297 14.7068C17.1652 15.2818 18.6369 14.9122 19.4707 13.9521C19.7505 13.6299 19.9457 13.2563 20.0396 12.867C20.0911 12.6517 19.9844 12.4357 19.7942 12.3397C18.6533 11.7497 17.1739 12.1488 16.3539 13.093ZM10.8588 9.18847C10.8581 9.91856 10.8571 10.8169 10.8588 9.18847V9.18847ZM16.49 0.274079C15.8751 1.37577 16.17 2.83219 17.0657 3.70344C17.3731 4.00247 17.7346 4.219 18.1153 4.3344C18.3431 4.40341 18.5825 4.29122 18.6796 4.08063C18.868 3.74303 18.9788 3.35234 19.0004 2.94188C19.0668 1.67877 18.2729 0.389514 17.0543 0.0203398C16.8264 -0.0487011 16.5871 0.0634865 16.49 0.274079ZM17.1287 1.44441C17.1353 1.3214 17.1539 1.20214 17.1837 1.08868C17.8729 1.52064 18.2355 2.44063 18.0296 3.2225C17.4427 2.85472 17.0922 2.13021 17.1287 1.44441ZM19.905 3.58664C20.1045 3.47585 20.3609 3.52265 20.5066 3.70711C21.2963 4.70774 21.2073 6.21295 20.4261 7.20528C20.1703 7.53028 19.8522 7.78664 19.5012 7.95338C19.3017 8.06418 19.0453 8.01737 18.8996 7.83291C17.8473 6.49959 18.3696 4.31595 19.905 3.58664ZM19.7456 4.91849C19.3123 5.4586 19.1801 6.24551 19.4499 6.88047C20.0799 6.3597 20.3166 5.40465 20 4.65956C19.9086 4.73519 19.8231 4.82192 19.7456 4.91849ZM21.0871 7.96942C21.3101 7.9619 21.514 8.1128 21.5647 8.33765C21.846 9.58366 21.1121 10.9145 19.9769 11.4779C19.6011 11.6643 19.1965 11.7598 18.8001 11.7575C18.5771 11.765 18.3732 11.6141 18.3224 11.3893C17.9472 9.72685 19.3659 7.95947 21.0871 7.96942ZM20.3276 9.09952C19.7107 9.40874 19.258 10.0649 19.2227 10.7562C20.0046 10.5463 20.6224 9.78331 20.664 8.97073C20.5509 9.00112 20.438 9.04419 20.3276 9.09952ZM18.5977 12.9771C18.722 12.9764 18.8437 12.9885 18.9606 13.0125C18.5642 13.7286 17.6612 14.1512 16.8641 13.9869C17.2019 13.3766 17.9069 12.9809 18.5977 12.9771Z" fill="#FFDACB"/>
</svg>

<svg width="22" height="15" fill="none" xmlns="http://www.w3.org/2000/svg"><path fill-rule="evenodd" clip-rule="evenodd" d="M5.091 11.893c-.029-3.177 1.45-4.94 4.438-5.289.171.414.627 1.537 1.368 3.367l1.375-3.367c2.935.304 4.403 2.104 4.403 5.4-2.971-.018-6.733-.018-11.286 0l-.298-.11z" fill="#fff"/><path d="M10.897 5.82a2.41 2.41 0 100-4.82 2.41 2.41 0 000 4.82z" fill="#fff"/><path opacity=".668" fill-rule="evenodd" clip-rule="evenodd" d="M5.362 13.093c.28.322.475.696.569 1.085a.469.469 0 01-.246.527l.001.002c-1.135.575-2.607.205-3.441-.755a2.592 2.592 0 01-.569-1.085.469.469 0 01.246-.527c1.14-.59 2.62-.191 3.44.753zm5.495-3.905c0 .73.002 1.629 0 0zM5.226.274c.615 1.102.32 2.558-.576 3.43a2.597 2.597 0 01-1.05.63.471.471 0 01-.564-.253 2.62 2.62 0 01-.32-1.14C2.648 1.68 3.442.39 4.66.022a.471.471 0 01.565.253zm-.639 1.17a1.765 1.765 0 00-.055-.355c-.69.432-1.052 1.352-.846 2.134.587-.368.938-1.093.901-1.779zM1.811 3.587a.474.474 0 00-.602.12c-.79 1-.7 2.506.08 3.498.256.325.575.582.926.748.2.111.455.064.601-.12 1.052-1.333.53-3.517-1.005-4.246zm.16 1.331c.432.54.565 1.328.295 1.962-.63-.52-.867-1.475-.55-2.22.091.075.177.162.254.258zM.628 7.97a.473.473 0 00-.478.369c-.281 1.246.453 2.577 1.588 3.14.376.186.78.282 1.177.28a.474.474 0 00.477-.369C3.77 9.727 2.35 7.96.63 7.97zm.76 1.13c.616.31 1.069.966 1.104 1.657-.782-.21-1.4-.973-1.441-1.785.113.03.226.073.336.129zm1.729 3.878c-.124 0-.246.011-.363.035.397.717 1.3 1.14 2.097.975-.338-.61-1.043-1.006-1.734-1.01z" fill="#FFDACB"/><path opacity=".668" fill-rule="evenodd" clip-rule="evenodd" d="M16.354 13.093c-.28.322-.475.696-.569 1.085a.469.469 0 00.245.527v.002c1.135.575 2.607.205 3.44-.755.28-.322.476-.696.57-1.085a.469.469 0 00-.246-.527c-1.14-.59-2.62-.191-3.44.753zm-5.495-3.905c0 .73-.002 1.629 0 0zM16.49.274c-.615 1.102-.32 2.558.576 3.43.307.298.669.515 1.05.63a.471.471 0 00.564-.253c.188-.338.299-.729.32-1.14.067-1.262-.727-2.551-1.946-2.92a.471.471 0 00-.564.253zm.639 1.17c.006-.123.025-.242.055-.355.689.432 1.051 1.352.846 2.134-.587-.368-.938-1.093-.901-1.779zm2.776 2.143c.2-.111.456-.064.602.12.79 1 .7 2.506-.08 3.498a2.612 2.612 0 01-.926.748.474.474 0 01-.601-.12c-1.053-1.333-.53-3.517 1.005-4.246zm-.16 1.331c-.433.54-.565 1.328-.295 1.962.63-.52.867-1.475.55-2.22a1.79 1.79 0 00-.254.258zm1.342 3.051a.473.473 0 01.478.369c.281 1.246-.453 2.577-1.588 3.14-.376.186-.78.282-1.177.28a.474.474 0 01-.478-.369c-.375-1.662 1.044-3.43 2.765-3.42zm-.76 1.13c-.616.31-1.069.966-1.104 1.657.782-.21 1.4-.973 1.441-1.785-.113.03-.226.073-.336.129zm-1.73 3.878c.125 0 .247.011.364.035-.397.717-1.3 1.14-2.097.975.338-.61 1.043-1.006 1.734-1.01z" fill="#FFDACB"/></svg>
